dist/img/hours_icon.svg

<svg width="68" height="68" viewBox="0 0 68 68" fill="none" xmlns="http://www.w3.org/2000/svg">
<circle cx="34" cy="34" r="34" fill="#0D1B2B"/>
<path fill-rule="evenodd" clip-rule="evenodd" d="M21.4186 28.5598C21.0047 28.4089 17.2704 30.1845 16.0649 31.3095C15.7093 31.6414 18.5075 40.1174 23.41 44.9775C29.4779 50.993 36.832 51.6335 37.112 51.6831C37.5091 51.7536 39.6971 47.5329 39.3901 46.9087C39.0831 46.2844 34.515 43.2963 34.0343 43.2001C33.5535 43.1039 32.1457 45.4258 31.741 45.3779C31.3362 45.3301 28.1153 43.4783 26.9264 42.3597C23.6945 39.3186 22.6259 36.7587 22.4751 36.4736C22.1657 35.8888 24.9899 34.6865 24.9233 34.1876C24.8567 33.6887 21.8324 28.7107 21.4186 28.5598Z" stroke="white" stroke-width="1.5"/>
<path d="M28.7889 30.1578C28.7449 29.4582 29.6584 27.9731 30.9356 27.7974C32.0682 27.6415 33.3037 28.051 33.5111 29.654C33.7738 31.6831 31.7917 32.9126 29.0063 34.9385V35.7649H34.4677" stroke="white" stroke-width="1.5"/>
<path d="M40.0416 36.5349V27.7827H38.9407L36.2556 32.3676V33.6378H41.4478" stroke="white" stroke-width="1.5"/>
<path fill-rule="evenodd" clip-rule="evenodd" d="M43.1411 27.0479V32.002V36.4876V27.0479Z" stroke="white" stroke-width="1.5"/>
<path d="M47.076 36.4876C47.076 36.4876 47.076 33.6687 47.076 32.6379C47.076 31.607 43.8603 31.7658 43.0911 32.1586" stroke="white" stroke-width="1.5"/>
<ellipse cx="37.5935" cy="32.1737" rx="14.2623" ry="16.1737" transform="rotate(-11 37.5935 32.1737)" stroke="white" stroke-width="1.5"/>
</svg>

<svg width="68" height="68" fill="none" xmlns="http://www.w3.org/2000/svg"><circle cx="34" cy="34" r="34" fill="#0D1B2B"/><path clip-rule="evenodd" d="M21.419 28.56c-.414-.151-4.149 1.625-5.354 2.75-.356.331 2.442 8.807 7.345 13.668 6.068 6.015 13.422 6.655 13.702 6.705.397.07 2.585-4.15 2.278-4.774-.307-.625-4.875-3.613-5.356-3.709-.48-.096-1.888 2.226-2.293 2.178-.405-.048-3.626-1.9-4.815-3.018-3.231-3.041-4.3-5.601-4.45-5.886-.31-.585 2.514-1.787 2.447-2.286-.066-.5-3.09-5.477-3.504-5.628z" stroke="#fff" stroke-width="1.5"/><path d="M28.789 30.158c-.044-.7.87-2.185 2.147-2.36 1.132-.156 2.368.253 2.575 1.856.263 2.03-1.72 3.259-4.505 5.284v.827h5.462m5.574.77v-8.752H38.94l-2.685 4.585v1.27h5.192" stroke="#fff" stroke-width="1.5"/><path clip-rule="evenodd" d="M43.141 27.048v9.44-9.44z" stroke="#fff" stroke-width="1.5"/><path d="M47.076 36.488v-3.85c0-1.031-3.216-.872-3.985-.48" stroke="#fff" stroke-width="1.5"/><ellipse cx="37.593" cy="32.174" rx="14.262" ry="16.174" transform="rotate(-11 37.593 32.174)" stroke="#fff" stroke-width="1.5"/></svg>
